X:4932
T:Paddy Fahys reel (number 12)
O:england
M:4/4
L:1/8
C:Paddy Fahy
K:Gdor
A ||: B2dB DGBd | ~c2cA FAcA | B2dB DGBd | ~c2cA BGGA |
B2GA BDGB | AD^FD c2=Bc | dg~g2 dc=Bd |1 c=BcF DGGA :|
|2 c=BcF DG=Bd || g^fgd Bcge | f2cf AcfA | g^fgd A=BcA |
dg^fa ~g2ga |  bga^f gfdc | (3=Bcd BG D2^FA | dgg2 dc=Bd
|1 c=BcF DGBd :||2 c=BcF DGGA ||


